src/cards/hearts_9.svg

<svg version="1.1" id="Layer_1" xmlns="http://www.w3.org/2000/svg" xmlns:xlink="http://www.w3.org/1999/xlink" x="0px" y="0px"
	 width="100%" viewBox="0 0 340 500" enable-background="new 0 0 340 500" xml:space="preserve">
<path fill="transparent" opacity="1.000000" stroke="none" 
	d="
M1.000000,199.000000 
	C1.000000,134.019180 1.030326,69.538315 0.912307,5.057713 
	C0.906274,1.761520 1.397328,0.893655 4.940184,0.897656 
	C115.573792,1.022583 226.207596,1.027892 336.841156,0.883589 
	C340.698730,0.878558 341.077423,1.984249 341.075653,5.338834 
	C340.989227,169.123398 340.987732,332.907990 341.083771,496.692535 
	C341.085785,500.138336 340.576965,501.114319 336.809784,501.109711 
	C226.176193,500.974274 115.542381,500.976227 4.908789,501.105804 
	C1.301651,501.110016 0.914956,500.139740 0.918217,496.910950 
	C1.018347,397.774048 1.000000,298.637024 1.000000,199.000000 
z"/>
<path fill="currentColor" opacity="1.000000" stroke="none" 
	d="
M97.861877,63.028824 
	C99.730286,64.648605 101.296005,66.069954 103.012398,67.628090 
	C107.533813,61.575665 113.720924,58.123066 121.736839,59.308464 
	C134.087830,61.134914 140.863419,73.543365 136.348389,85.791885 
	C133.852036,92.564125 128.908188,97.458374 123.739922,102.221321 
	C116.563148,108.835258 107.973045,113.990395 102.650902,122.892174 
	C98.411575,115.610611 91.864143,111.029541 85.851288,105.909592 
	C80.147461,101.052788 74.406075,96.205864 70.707260,89.527351 
	C66.837685,82.540535 66.015610,75.295326 70.258003,68.215637 
	C74.072853,61.849434 79.989113,58.893810 87.424286,59.172314 
	C91.167976,59.312550 94.581535,60.501133 97.861877,63.028824 
z"/>
<path fill="currentColor" opacity="1.000000" stroke="none" 
	d="
M210.163574,88.637260 
	C204.367905,74.710922 209.628967,62.315086 222.410767,59.588020 
	C230.763962,57.805828 237.361359,60.982285 242.600311,68.037086 
	C246.354095,63.349350 250.773117,59.765163 256.946808,59.171562 
	C271.316833,57.789883 281.436676,71.405617 276.470490,85.499626 
	C274.069550,92.313560 269.160126,97.270180 263.991089,102.022263 
	C256.685364,108.738724 248.001816,114.020378 242.581497,122.885338 
	C238.531265,115.642204 232.037796,111.142052 226.106461,106.110878 
	C220.130661,101.042000 214.267029,95.904488 210.163574,88.637260 
z"/>
<path fill="currentColor" opacity="1.000000" stroke="none" 
	d="
M126.865967,170.841339 
	C137.912659,177.536591 140.861893,188.270020 134.843887,199.224533 
	C132.011490,204.380295 127.868896,208.453766 123.550644,212.402756 
	C116.472504,218.875610 108.035744,223.955338 102.714432,232.834213 
	C96.887482,223.458374 87.595497,218.054520 80.041603,210.813538 
	C74.592682,205.590286 69.518890,200.096878 67.999588,192.357590 
	C66.157150,182.972229 70.277954,174.657791 78.471169,170.872070 
	C86.530807,167.148071 95.182976,169.257919 101.301277,176.441208 
	C101.698708,176.907822 102.083755,177.384964 102.618874,178.031616 
	C109.006264,169.960846 116.766602,166.957245 126.865967,170.841339 
z"/>
<path fill="currentColor" opacity="1.000000" stroke="none" 
	d="
M256.434601,218.430328 
	C251.240891,222.862717 246.036362,226.790741 242.742584,233.028595 
	C238.410126,225.625168 231.888580,221.030365 225.872910,215.927841 
	C220.028458,210.970535 214.123749,206.015076 210.466766,199.124542 
	C206.739685,192.101929 206.056610,184.828323 210.514847,177.817749 
	C214.517868,171.523010 220.511658,168.706055 227.900757,169.203629 
	C234.091537,169.620529 238.871780,172.718002 242.584702,178.142227 
	C247.517258,171.598724 253.793945,167.994064 261.988068,169.355713 
	C275.084656,171.531998 281.526428,185.208313 275.514923,197.879196 
	C272.829071,203.540329 268.553375,207.966568 263.913849,212.054626 
	C261.545044,214.141891 259.109528,216.153458 256.434601,218.430328 
z"/>
<path fill="currentColor" opacity="1.000000" stroke="none" 
	d="
M193.877075,224.842712 
	C206.633224,229.454437 211.258087,241.243820 205.308075,253.256058 
	C202.524658,258.875397 198.146103,263.184692 193.575623,267.373901 
	C186.489258,273.869202 178.029373,278.954681 172.707443,287.843414 
	C166.989716,278.544281 157.822830,273.197937 150.340637,266.078583 
	C146.944901,262.847534 143.727005,259.496033 141.250473,255.507065 
	C135.073196,245.557327 136.764221,233.863220 145.212448,227.784149 
	C154.134583,221.364075 164.564941,223.273056 172.612350,232.968185 
	C178.003799,226.276794 184.601898,222.518250 193.877075,224.842712 
z"/>
<path fill="currentColor" opacity="1.000000" stroke="none" 
	d="
M98.166000,330.254211 
	C89.883545,335.754883 81.007111,335.570496 74.296692,329.991119 
	C67.547546,324.379578 65.577629,315.077698 69.492165,306.358978 
	C72.569725,299.504425 77.876152,294.457031 83.457603,289.625519 
	C90.106956,283.869568 97.535042,278.891144 102.579689,270.775177 
	C109.293648,281.111572 120.084534,286.936707 128.232559,295.582123 
	C132.768860,300.395386 136.465408,305.598022 137.595596,312.296814 
	C138.934723,320.233978 135.092514,328.199677 127.993866,332.087341 
	C121.004547,335.915161 112.041222,334.800964 106.194695,329.344452 
	C104.989479,328.219635 103.873856,326.998810 102.727280,325.832764 
	C101.257149,327.276642 99.856735,328.652039 98.166000,330.254211 
z"/>
<path fill="currentColor" opacity="1.000000" stroke="none" 
	d="
M226.811615,286.807983 
	C232.672058,281.877777 238.526733,277.439728 242.606781,270.718842 
	C247.917419,279.214600 256.166687,284.413361 263.249664,290.840302 
	C268.689545,295.776306 273.962616,300.863739 276.500763,308.015686 
	C279.789581,317.282837 276.681458,326.765900 268.862579,331.614410 
	C261.115875,336.418213 251.277023,334.800720 244.471848,327.599579 
	C243.913071,327.008270 243.381439,326.391327 242.655029,325.583771 
	C239.029221,330.103943 234.925537,333.559448 229.071213,334.105469 
	C213.938278,335.516937 203.841324,322.578003 208.823883,308.139435 
	C210.949142,301.980804 215.143295,297.277802 219.762848,292.917297 
	C221.936127,290.865906 224.280212,288.995453 226.811615,286.807983 
z"/>
<path fill="currentColor" opacity="1.000000" stroke="none" 
	d="
M118.999321,444.168945 
	C112.769096,444.444641 108.177994,441.927673 104.624359,437.655182 
	C102.910461,435.594513 102.282639,435.999603 100.661873,437.742218 
	C94.034294,444.868073 84.361763,446.361969 76.664810,441.730469 
	C68.760460,436.974213 65.593948,427.510803 68.807487,418.182373 
	C70.933098,412.011993 75.066704,407.230408 79.762657,402.941864 
	C84.307564,398.791168 89.113213,394.927429 93.750473,390.876007 
	C97.013863,388.024933 100.159149,385.045898 102.490273,380.638275 
	C109.280426,391.104004 120.069412,396.923126 128.213943,405.562683 
	C132.746368,410.370605 136.449020,415.563904 137.589706,422.257843 
	C139.541153,433.709656 131.436707,443.518158 118.999321,444.168945 
z"/>
<path fill="currentColor" opacity="1.000000" stroke="none" 
	d="
M225.150635,444.166443 
	C210.701706,442.484680 203.561401,429.087524 209.724014,415.893982 
	C212.824982,409.255096 218.017288,404.340729 223.462769,399.621185 
	C230.103958,393.865326 237.530869,388.893829 242.573013,380.790588 
	C249.395477,391.220673 260.344482,397.102570 268.549957,405.911163 
	C274.299744,412.083618 278.746033,418.887817 277.673645,427.704468 
	C276.764099,435.182678 272.676758,440.754059 265.296112,443.153809 
	C257.946869,445.543396 251.175217,444.404572 245.542816,438.708649 
	C244.617554,437.772919 243.731171,436.798737 242.603912,435.606598 
	C238.271088,441.280670 232.888611,444.715332 225.150635,444.166443 
z"/>
<path fill="currentColor" opacity="1.000000" stroke="none" 
	d="
M328.050354,409.214600 
	C331.148499,415.292938 330.784424,419.958832 327.174774,423.199158 
	C323.598480,426.409515 319.409393,426.430725 314.100647,422.748016 
	C312.483032,421.625854 311.994781,422.381531 310.894470,423.163452 
	C306.371735,426.377533 301.608673,426.323608 298.124969,423.180450 
	C294.493713,419.904175 293.946594,414.785431 296.822327,409.974518 
	C298.278656,407.538239 300.215515,405.511658 302.385590,403.646667 
	C305.903625,400.623230 309.771851,397.948486 312.585266,393.782471 
	C316.960205,399.688873 323.608826,403.042694 328.050354,409.214600 
z"/>
<path fill="currentColor" opacity="1.000000" stroke="none" 
	d="
M24.965681,102.026703 
	C21.869638,99.475136 19.059168,97.126572 17.086296,93.985329 
	C13.961503,89.009979 14.366124,83.749634 18.087330,80.343025 
	C21.656815,77.075310 26.405178,77.040909 31.131271,80.666771 
	C32.560612,81.763359 32.936916,81.472862 34.195229,80.522789 
	C39.017319,76.881905 44.051086,77.104149 47.636330,80.792953 
	C51.037197,84.292061 51.194595,89.862259 47.887260,94.518623 
	C43.709824,100.400009 37.029770,103.743271 32.648624,109.667480 
	C30.476517,106.705299 27.937559,104.396400 24.965681,102.026703 
z"/>
<path fill="currentColor" opacity="1.000000" stroke="none" 
	d="
M38.055496,40.715302 
	C36.765427,41.237244 35.683998,41.656830 34.580055,42.005005 
	C26.221848,44.641102 18.991972,41.096142 17.256704,33.524300 
	C15.323459,25.088581 20.760843,17.102360 29.201717,15.979920 
	C38.930519,14.686216 45.270470,19.261358 47.236328,28.883066 
	C48.546703,35.296574 47.919140,41.499611 45.225052,47.421600 
	C41.169601,56.336044 31.077345,60.238636 22.175552,56.367367 
	C20.904346,55.814533 18.664162,55.814968 19.494572,53.126099 
	C20.302679,50.509441 21.768740,51.620934 23.312611,52.041889 
	C31.349369,54.233192 35.965298,51.232891 38.533920,41.857941 
	C38.413326,41.200027 38.312920,40.896770 38.055496,40.715302 
z"/>
<path fill="currentColor" opacity="1.000000" stroke="none" 
	d="
M317.116516,487.336151 
	C305.739624,488.870911 299.248840,483.807129 297.799225,472.785980 
	C296.996674,466.684509 297.673370,460.813721 300.468842,455.312622 
	C304.715790,446.955292 314.473053,443.417877 323.041260,447.070190 
	C324.462524,447.676025 326.574585,448.040222 325.807861,450.415619 
	C325.036072,452.806610 323.457428,451.778839 321.785217,451.352173 
	C313.362762,449.203125 307.599030,453.633820 307.049957,462.983002 
	C312.304535,460.599945 317.566620,459.593109 322.786591,462.389191 
	C325.413757,463.796417 326.957672,466.200653 327.770325,469.004028 
	C330.148407,477.207550 326.059814,484.413818 317.116516,487.336151 
z"/>
<path fill="white" opacity="1.000000" stroke="none" 
	d="
M28.303917,21.146210 
	C32.862133,18.653740 35.568565,20.583076 37.483406,24.310621 
	C38.477051,26.244894 38.895561,28.359497 39.073818,30.554968 
	C39.343849,33.880741 39.535549,36.791016 35.022362,37.541649 
	C30.394806,38.311298 27.221989,37.058189 25.801388,32.960133 
	C24.335747,28.732143 24.719297,24.765427 28.303917,21.146210 
z"/>
<path fill="transparent" opacity="1.000000" stroke="none" 
	d="
M38.025909,41.016773 
	C38.115028,40.666485 38.372776,40.482239 38.630524,40.297993 
	C38.686581,40.545982 38.742641,40.793972 38.676811,41.265804 
	C38.554920,41.489647 38.194538,41.182816 38.025909,41.016773 
z"/>
<path fill="white" opacity="1.000000" stroke="none" 
	d="
M317.597260,481.795715 
	C312.504517,484.333801 309.745239,483.480316 307.760437,478.914886 
	C307.041107,477.260315 306.563568,475.452606 306.280579,473.666443 
	C305.718079,470.115906 305.260315,466.642761 310.452209,465.948639 
	C315.645569,465.254364 319.019073,466.975922 319.855682,471.640045 
	C320.475800,475.097168 320.595764,478.632843 317.597260,481.795715 
z"/>
</svg>

<svg xmlns="http://www.w3.org/2000/svg" viewBox="0 0 340 500" xml:space="preserve"><path fill="transparent" d="M1 199C1 134.02 1.03 69.538.912 5.058.906 1.762 1.397.894 4.94.898c110.634.125 221.268.13 331.901-.014 3.858-.005 4.236 1.1 4.235 4.455-.087 163.784-.088 327.569.008 491.354.002 3.445-.507 4.421-4.274 4.417-110.634-.136-221.268-.134-331.901-.004-3.607.004-3.994-.966-3.99-4.195C1.018 397.774 1 298.637 1 199z"/><path fill="currentColor" d="M97.862 63.029a287.486 287.486 0 0 1 5.15 4.6c4.522-6.053 10.709-9.506 18.725-8.32 12.35 1.826 19.126 14.234 14.611 26.483-2.496 6.772-7.44 11.666-12.608 16.43-7.177 6.613-15.767 11.768-21.09 20.67-4.238-7.281-10.786-11.862-16.799-16.982-5.704-4.857-11.445-9.704-15.144-16.383-3.87-6.986-4.691-14.232-.449-21.311 3.815-6.367 9.731-9.322 17.166-9.044 3.744.14 7.158 1.33 10.438 3.857zM210.164 88.637c-5.796-13.926-.535-26.322 12.247-29.049 8.353-1.782 14.95 1.394 20.19 8.45 3.753-4.689 8.172-8.273 14.346-8.866 14.37-1.382 24.49 12.234 19.523 26.328-2.4 6.814-7.31 11.77-12.479 16.522-7.306 6.717-15.99 11.998-21.41 20.863-4.05-7.243-10.543-11.743-16.475-16.774-5.975-5.069-11.839-10.207-15.942-17.474zM126.866 170.841c11.047 6.696 13.996 17.429 7.978 28.384-2.833 5.155-6.975 9.229-11.293 13.178-7.078 6.473-15.515 11.552-20.837 20.431-5.827-9.376-15.119-14.78-22.672-22.02-5.45-5.224-10.523-10.717-12.042-18.456-1.843-9.386 2.278-17.7 10.471-21.486 8.06-3.724 16.712-1.614 22.83 5.57.398.466.783.943 1.318 1.59 6.387-8.071 14.148-11.075 24.247-7.19zM256.435 218.43c-5.194 4.433-10.399 8.36-13.692 14.599-4.333-7.404-10.854-11.999-16.87-17.101-5.845-4.957-11.75-9.913-15.406-16.803-3.727-7.023-4.41-14.297.048-21.307 4.003-6.295 9.997-9.112 17.386-8.614 6.19.417 10.97 3.514 14.684 8.938 4.932-6.543 11.209-10.148 19.403-8.786 13.097 2.176 19.538 15.852 13.527 28.523-2.686 5.661-6.962 10.088-11.601 14.176-2.369 2.087-4.804 4.098-7.48 6.375zM193.877 224.843c12.756 4.611 17.381 16.4 11.431 28.413-2.783 5.62-7.162 9.929-11.732 14.118-7.087 6.495-15.547 11.58-20.869 20.47-5.717-9.3-14.884-14.646-22.366-21.765-3.396-3.231-6.614-6.583-9.09-10.572-6.178-9.95-4.487-21.644 3.961-27.723 8.923-6.42 19.353-4.51 27.4 5.184 5.392-6.691 11.99-10.45 21.265-8.125zM98.166 330.254c-8.282 5.5-17.159 5.316-23.87-.263-6.748-5.611-8.718-14.913-4.804-23.632 3.078-6.855 8.384-11.902 13.966-16.733 6.649-5.756 14.077-10.735 19.122-18.85 6.714 10.336 17.505 16.16 25.653 24.806 4.536 4.813 8.232 10.016 9.363 16.715 1.339 7.937-2.503 15.903-9.602 19.79-6.99 3.828-15.953 2.714-21.8-2.743-1.205-1.124-2.32-2.345-3.467-3.511-1.47 1.444-2.87 2.819-4.561 4.421zM226.812 286.808c5.86-4.93 11.715-9.368 15.795-16.09 5.31 8.497 13.56 13.695 20.643 20.122 5.44 4.936 10.713 10.024 13.25 17.176 3.29 9.267.181 18.75-7.637 23.598-7.747 4.804-17.586 3.187-24.391-4.014-.559-.592-1.09-1.209-1.817-2.016-3.626 4.52-7.73 7.975-13.584 8.521-15.133 1.412-25.23-11.527-20.247-25.966 2.125-6.158 6.32-10.861 10.939-15.222 2.173-2.051 4.517-3.922 7.049-6.109zM119 444.169c-6.23.276-10.822-2.241-14.376-6.514-1.714-2.06-2.341-1.655-3.962.087-6.628 7.126-16.3 8.62-23.997 3.988-7.905-4.756-11.071-14.22-7.858-23.548 2.126-6.17 6.26-10.952 10.956-15.24 4.545-4.15 9.35-8.015 13.987-12.066 3.264-2.851 6.41-5.83 8.74-10.238 6.79 10.466 17.58 16.285 25.724 24.925 4.532 4.808 8.235 10 9.376 16.695 1.951 11.452-6.153 21.26-18.59 21.91zM225.15 444.166c-14.448-1.681-21.589-15.078-15.426-28.272 3.101-6.639 8.293-11.553 13.739-16.273 6.641-5.756 14.068-10.727 19.11-18.83 6.822 10.43 17.771 16.312 25.977 25.12 5.75 6.173 10.196 12.977 9.124 21.793-.91 7.479-4.997 13.05-12.378 15.45-7.35 2.39-14.12 1.25-19.753-4.445-.925-.936-1.812-1.91-2.94-3.102-4.332 5.674-9.714 9.108-17.452 8.56zM328.05 409.215c3.098 6.078 2.734 10.744-.875 13.984-3.577 3.21-7.766 3.232-13.074-.451-1.618-1.122-2.106-.366-3.207.415-4.522 3.215-9.285 3.16-12.769.017-3.631-3.276-4.178-8.395-1.303-13.205 1.457-2.437 3.394-4.463 5.564-6.328 3.518-3.024 7.386-5.699 10.2-9.865 4.374 5.907 11.023 9.26 15.464 15.433zM24.966 102.027c-3.096-2.552-5.907-4.9-7.88-8.042-3.124-4.975-2.72-10.235 1.001-13.642 3.57-3.268 8.318-3.302 13.044.324 1.43 1.096 1.806.806 3.064-.144 4.822-3.641 9.856-3.419 13.441.27 3.401 3.5 3.559 9.07.251 13.726-4.177 5.881-10.857 9.224-15.238 15.148-2.172-2.962-4.711-5.27-7.683-7.64zM38.055 40.715c-1.29.522-2.371.942-3.475 1.29-8.358 2.636-15.588-.909-17.323-8.48-1.934-8.436 3.504-16.423 11.945-17.545 9.729-1.294 16.068 3.281 18.034 12.903 1.31 6.414.683 12.617-2.01 18.539-4.056 8.914-14.149 12.817-23.05 8.945-1.272-.552-3.512-.552-2.681-3.24.808-2.618 2.274-1.506 3.818-1.085 8.036 2.191 12.652-.81 15.22-10.184-.12-.658-.22-.961-.478-1.143zM317.117 487.336c-11.377 1.535-17.868-3.529-19.318-14.55-.802-6.101-.126-11.972 2.67-17.473 4.247-8.358 14.004-11.895 22.572-8.243 1.422.606 3.534.97 2.767 3.346-.772 2.39-2.35 1.363-4.023.936-8.422-2.149-14.186 2.282-14.735 11.631 5.255-2.383 10.517-3.39 15.737-.594 2.627 1.407 4.17 3.812 4.983 6.615 2.378 8.204-1.71 15.41-10.653 18.332z"/><path fill="#fff" d="M28.304 21.146c4.558-2.492 7.265-.563 9.18 3.165.993 1.934 1.412 4.048 1.59 6.244.27 3.326.462 6.236-4.052 6.987-4.627.77-7.8-.484-9.22-4.582-1.466-4.228-1.083-8.195 2.502-11.814z"/><path fill="transparent" d="M38.026 41.017c.089-.35.347-.535.605-.719.056.248.112.496.046.968-.122.224-.482-.083-.651-.25z"/><path fill="#fff" d="M317.597 481.796c-5.092 2.538-7.852 1.684-9.837-2.881-.719-1.655-1.196-3.462-1.48-5.249-.562-3.55-1.02-7.023 4.172-7.717 5.194-.695 8.567 1.027 9.404 5.691.62 3.457.74 6.993-2.259 10.156z"/></svg>
